public/logos/TG.svg

<?xml version="1.0" encoding="UTF-8"?>
<svg xmlns="http://www.w3.org/2000/svg" xmlns:xlink="http://www.w3.org/1999/xlink" width="176pt" height="51.74pt" viewBox="0 0 176 51.74" version="1.1">
<defs>
<clipPath id="clip1">
  <path d="M 0 0 L 56 0 L 56 51.738281 L 0 51.738281 Z M 0 0 "/>
</clipPath>
</defs>
<g id="surface1">
<g clip-path="url(#clip1)" clip-rule="nonzero">
<path style=" stroke:none;fill-rule:evenodd;fill:rgb(98.417664%,78.044128%,3.048706%);fill-opacity:1;" d="M 54.003906 32.324219 C 53.5 31.246094 52.921875 30.234375 52.203125 29.371094 C 51.480469 28.503906 50.6875 27.785156 49.820312 27.132812 C 49.390625 26.773438 48.886719 26.484375 48.378906 26.269531 C 48.164062 26.125 47.875 25.980469 47.660156 25.835938 C 47.875 25.765625 48.164062 25.621094 48.378906 25.476562 C 48.886719 25.257812 49.390625 24.972656 49.820312 24.609375 C 50.6875 23.960938 51.480469 23.242188 52.203125 22.375 C 52.921875 21.507812 53.5 20.5 54.003906 19.417969 C 54.507812 18.335938 54.867188 17.183594 55.085938 15.957031 C 55.15625 15.09375 55.230469 14.226562 55.230469 13.433594 C 55.230469 13.074219 55.230469 12.714844 55.230469 12.28125 C 55.15625 11.273438 54.941406 10.261719 54.582031 9.253906 C 54.21875 8.316406 53.789062 7.304688 53.210938 6.441406 C 52.632812 5.503906 51.984375 4.710938 51.191406 3.917969 C 50.398438 3.195312 49.535156 2.476562 48.597656 1.898438 C 47.585938 1.320312 46.578125 0.890625 45.421875 0.601562 C 44.269531 0.238281 43.117188 0.0234375 41.820312 0.0234375 C 40.59375 -0.046875 39.4375 0.0976562 38.285156 0.3125 C 37.203125 0.601562 36.121094 1.03125 35.183594 1.539062 C 34.175781 2.042969 33.308594 2.691406 32.519531 3.484375 C 31.796875 4.207031 31.148438 5.070312 30.644531 6.007812 C 30.136719 6.945312 29.777344 7.953125 29.632812 9.035156 C 29.488281 9.613281 29.488281 10.117188 29.488281 10.695312 C 29.488281 11.199219 29.488281 11.632812 29.5625 12.0625 C 28.550781 11.488281 27.542969 10.984375 26.53125 10.695312 C 25.308594 10.261719 23.867188 10.046875 22.421875 9.972656 C 21.054688 9.972656 19.753906 10.117188 18.53125 10.40625 C 17.375 10.621094 16.222656 11.054688 15.140625 11.632812 C 14.203125 12.136719 13.195312 12.785156 12.257812 13.578125 C 11.679688 14.082031 11.101562 14.589844 10.527344 15.164062 C 10.527344 15.164062 9.660156 16.03125 9.230469 16.605469 C 8.722656 17.113281 8.21875 17.761719 7.714844 18.410156 L 6.5625 19.851562 C 6.273438 20.285156 5.984375 20.644531 5.625 21.003906 C 5.191406 21.582031 4.6875 22.085938 4.179688 22.589844 C 3.316406 23.457031 2.378906 24.25 1.371094 24.898438 C 1.152344 25.042969 0.9375 25.1875 0.71875 25.332031 C 0.578125 25.402344 0.433594 25.476562 0.289062 25.546875 C 0.144531 25.621094 0 25.691406 0 25.835938 C 0 26.050781 0.144531 26.125 0.289062 26.195312 C 0.433594 26.269531 0.578125 26.339844 0.71875 26.414062 C 0.9375 26.558594 1.152344 26.703125 1.371094 26.84375 C 2.378906 27.496094 3.316406 28.289062 4.179688 29.152344 C 4.6875 29.65625 5.191406 30.164062 5.625 30.738281 C 5.984375 31.097656 6.273438 31.460938 6.5625 31.894531 L 7.714844 33.335938 C 8.21875 33.984375 8.722656 34.632812 9.230469 35.136719 C 9.660156 35.714844 10.527344 36.507812 10.527344 36.507812 C 11.101562 37.15625 11.679688 37.660156 12.257812 38.164062 C 13.195312 38.957031 14.203125 39.609375 15.140625 40.113281 C 16.222656 40.691406 17.375 41.121094 18.53125 41.335938 C 19.753906 41.699219 21.054688 41.769531 22.421875 41.769531 C 23.867188 41.699219 25.308594 41.484375 26.53125 41.050781 C 27.542969 40.761719 28.550781 40.257812 29.5625 39.679688 C 29.488281 40.113281 29.488281 40.542969 29.488281 41.050781 C 29.488281 41.625 29.488281 42.132812 29.632812 42.707031 C 29.777344 43.789062 30.136719 44.800781 30.644531 45.734375 C 31.148438 46.671875 31.796875 47.539062 32.519531 48.261719 C 33.308594 49.054688 34.175781 49.703125 35.183594 50.207031 C 36.121094 50.710938 37.203125 51.144531 38.285156 51.433594 C 39.4375 51.648438 40.59375 51.792969 41.820312 51.722656 C 43.117188 51.722656 44.269531 51.503906 45.421875 51.144531 C 46.578125 50.855469 47.585938 50.421875 48.597656 49.847656 C 49.535156 49.269531 50.398438 48.546875 51.191406 47.828125 C 51.984375 47.035156 52.632812 46.242188 53.210938 45.304688 C 53.789062 44.4375 54.21875 43.429688 54.582031 42.492188 C 54.941406 41.484375 55.15625 40.472656 55.230469 39.390625 C 55.230469 39.03125 55.230469 38.671875 55.230469 38.308594 C 55.230469 37.515625 55.15625 36.652344 55.085938 35.785156 C 54.867188 34.5625 54.507812 33.40625 54.003906 32.324219 "/>
</g>
<path style=" stroke:none;fill-rule:evenodd;fill:rgb(21.588135%,15.769958%,42.436218%);fill-opacity:1;" d="M 50.976562 33.480469 C 50.542969 32.542969 50.039062 31.675781 49.316406 30.882812 C 48.667969 30.089844 47.875 29.441406 47.011719 28.9375 C 46.074219 28.359375 45.136719 27.925781 44.125 27.710938 C 43.117188 27.351562 42.035156 27.207031 40.953125 27.207031 C 39.800781 27.207031 38.71875 27.351562 37.566406 27.636719 C 36.628906 27.855469 35.761719 28.144531 34.898438 28.578125 C 34.105469 28.9375 33.382812 29.441406 32.734375 29.945312 C 32.085938 30.378906 31.4375 30.882812 30.859375 31.386719 C 30.210938 31.820312 29.632812 32.253906 28.984375 32.6875 C 28.40625 33.046875 27.757812 33.40625 27.039062 33.695312 C 26.246094 33.910156 25.453125 34.054688 24.65625 34.054688 C 23.578125 34.054688 22.496094 33.839844 21.484375 33.40625 C 20.476562 32.972656 19.609375 32.398438 18.890625 31.605469 C 18.097656 30.882812 17.519531 29.945312 17.160156 28.9375 C 16.726562 28 16.582031 26.917969 16.582031 25.835938 C 16.582031 24.828125 16.726562 23.746094 17.160156 22.808594 C 17.519531 21.800781 18.097656 20.933594 18.890625 20.140625 C 19.609375 19.347656 20.476562 18.769531 21.484375 18.335938 C 22.496094 17.90625 23.578125 17.6875 24.65625 17.6875 C 25.453125 17.6875 26.246094 17.832031 27.039062 18.050781 C 27.757812 18.335938 28.40625 18.699219 28.984375 19.058594 C 29.632812 19.492188 30.210938 19.921875 30.859375 20.429688 C 31.4375 20.859375 32.085938 21.367188 32.734375 21.871094 C 33.382812 22.304688 34.105469 22.808594 34.898438 23.167969 C 35.761719 23.601562 36.628906 23.890625 37.566406 24.105469 C 38.71875 24.394531 39.800781 24.539062 40.953125 24.539062 C 42.035156 24.539062 43.117188 24.394531 44.125 24.105469 C 45.136719 23.816406 46.074219 23.386719 47.011719 22.808594 C 47.875 22.304688 48.667969 21.65625 49.316406 20.859375 C 50.039062 20.066406 50.542969 19.203125 50.976562 18.265625 C 51.40625 17.257812 51.695312 16.246094 51.839844 15.164062 C 51.984375 14.011719 51.984375 12.859375 51.769531 11.703125 C 51.550781 10.621094 51.191406 9.542969 50.6875 8.605469 C 50.183594 7.667969 49.535156 6.875 48.8125 6.152344 C 48.019531 5.359375 47.226562 4.78125 46.289062 4.277344 C 45.351562 3.84375 44.34375 3.484375 43.332031 3.269531 C 42.324219 3.050781 41.167969 2.980469 40.089844 3.125 C 39.078125 3.269531 37.996094 3.558594 37.058594 4.0625 C 36.195312 4.492188 35.328125 5.144531 34.679688 5.863281 C 33.960938 6.585938 33.453125 7.449219 33.023438 8.386719 C 32.660156 9.324219 32.375 10.335938 32.300781 11.34375 C 32.300781 12.351562 32.375 13.433594 32.734375 14.445312 C 32.734375 14.589844 32.804688 14.730469 32.878906 14.878906 C 32.878906 14.949219 32.878906 15.019531 32.949219 15.09375 C 32.949219 15.164062 32.949219 15.238281 33.023438 15.308594 C 33.023438 15.308594 33.09375 15.382812 33.167969 15.382812 C 33.167969 15.382812 33.238281 15.308594 33.238281 15.238281 C 33.238281 15.09375 33.238281 14.949219 33.238281 14.804688 C 33.308594 14.226562 33.453125 13.722656 33.671875 13.21875 C 34.105469 12.28125 34.753906 11.488281 35.546875 10.910156 C 36.410156 10.40625 37.417969 10.117188 38.429688 10.046875 C 39.511719 9.972656 40.59375 10.117188 41.53125 10.621094 C 42.394531 11.054688 43.117188 11.777344 43.621094 12.640625 C 44.125 13.507812 44.34375 14.589844 44.34375 15.597656 C 44.34375 16.605469 44.054688 17.6875 43.476562 18.554688 C 42.972656 19.417969 42.179688 20.140625 41.242188 20.644531 C 40.304688 21.078125 39.222656 21.292969 38.214844 21.148438 C 37.492188 21.078125 36.773438 20.859375 36.121094 20.574219 C 35.472656 20.285156 34.824219 19.851562 34.246094 19.417969 C 33.597656 18.914062 32.949219 18.410156 32.375 17.90625 C 31.722656 17.328125 31.074219 16.75 30.425781 16.246094 C 29.707031 15.671875 28.984375 15.164062 28.191406 14.804688 C 27.328125 14.300781 26.460938 13.9375 25.523438 13.652344 C 24.515625 13.363281 23.433594 13.21875 22.351562 13.21875 C 21.269531 13.21875 20.1875 13.289062 19.105469 13.578125 C 18.167969 13.796875 17.304688 14.082031 16.4375 14.515625 C 15.71875 14.949219 14.996094 15.453125 14.277344 16.03125 C 13.628906 16.535156 13.050781 17.183594 12.472656 17.832031 C 11.894531 18.480469 11.390625 19.132812 10.886719 19.78125 C 10.308594 20.429688 9.804688 21.148438 9.300781 21.800781 C 8.722656 22.449219 8.21875 23.023438 7.570312 23.671875 C 6.992188 24.25 6.417969 24.753906 5.695312 25.257812 C 5.550781 25.332031 5.40625 25.402344 5.261719 25.476562 C 5.191406 25.546875 5.046875 25.621094 4.976562 25.691406 C 4.902344 25.691406 4.757812 25.765625 4.757812 25.835938 C 4.757812 25.980469 4.902344 26.050781 4.976562 26.125 C 5.046875 26.125 5.191406 26.195312 5.261719 26.269531 C 5.40625 26.339844 5.550781 26.414062 5.695312 26.558594 C 6.417969 26.988281 6.992188 27.496094 7.570312 28.070312 C 8.21875 28.648438 8.722656 29.296875 9.300781 29.945312 C 9.804688 30.59375 10.308594 31.316406 10.886719 31.964844 C 11.390625 32.613281 11.894531 33.261719 12.472656 33.910156 C 13.050781 34.5625 13.628906 35.207031 14.277344 35.714844 C 14.996094 36.289062 15.71875 36.796875 16.4375 37.226562 C 17.304688 37.660156 18.167969 37.949219 19.105469 38.164062 C 20.1875 38.453125 21.269531 38.527344 22.351562 38.527344 C 23.433594 38.527344 24.515625 38.382812 25.523438 38.09375 C 26.460938 37.804688 27.328125 37.445312 28.191406 37.011719 C 28.984375 36.578125 29.707031 36.074219 30.425781 35.496094 C 31.074219 34.992188 31.722656 34.414062 32.375 33.910156 C 32.949219 33.335938 33.597656 32.828125 34.246094 32.324219 C 34.824219 31.894531 35.472656 31.460938 36.121094 31.171875 C 36.773438 30.882812 37.492188 30.667969 38.214844 30.59375 C 39.222656 30.449219 40.304688 30.667969 41.242188 31.097656 C 42.179688 31.53125 42.972656 32.324219 43.476562 33.191406 C 44.054688 34.054688 44.34375 35.136719 44.34375 36.148438 C 44.34375 37.226562 44.125 38.238281 43.621094 39.101562 C 43.117188 39.96875 42.394531 40.691406 41.53125 41.121094 C 40.59375 41.625 39.511719 41.769531 38.429688 41.699219 C 37.417969 41.699219 36.410156 41.335938 35.546875 40.832031 C 34.753906 40.257812 34.105469 39.464844 33.671875 38.527344 C 33.453125 38.023438 33.308594 37.515625 33.238281 36.941406 C 33.238281 36.796875 33.238281 36.652344 33.238281 36.507812 C 33.238281 36.433594 33.167969 36.363281 33.167969 36.363281 C 33.09375 36.363281 33.023438 36.433594 33.023438 36.433594 C 32.949219 36.507812 32.949219 36.578125 32.949219 36.652344 C 32.878906 36.722656 32.878906 36.796875 32.878906 36.867188 C 32.804688 37.011719 32.734375 37.15625 32.734375 37.300781 C 32.375 38.308594 32.300781 39.390625 32.300781 40.402344 C 32.375 41.410156 32.660156 42.417969 33.023438 43.355469 C 33.453125 44.292969 33.960938 45.160156 34.679688 45.878906 C 35.328125 46.601562 36.195312 47.25 37.058594 47.683594 C 37.996094 48.1875 39.078125 48.476562 40.089844 48.621094 C 41.167969 48.765625 42.324219 48.691406 43.332031 48.476562 C 44.34375 48.261719 45.351562 47.898438 46.289062 47.464844 C 47.226562 46.960938 48.019531 46.3125 48.8125 45.59375 C 49.535156 44.871094 50.183594 44.078125 50.6875 43.140625 C 51.191406 42.203125 51.550781 41.121094 51.769531 40.039062 C 51.984375 38.886719 51.984375 37.734375 51.839844 36.578125 C 51.695312 35.496094 51.40625 34.488281 50.976562 33.480469 "/>
<path style=" stroke:none;fill-rule:evenodd;fill:rgb(77.011108%,4.283142%,55.04303%);fill-opacity:1;" d="M 35.617188 25.835938 L 35.546875 25.765625 C 34.246094 25.476562 33.09375 24.753906 32.085938 24.035156 C 30.929688 23.167969 29.847656 22.304688 28.769531 21.507812 C 27.613281 20.71875 26.316406 20.066406 24.945312 19.996094 C 23.867188 19.921875 22.710938 20.140625 21.773438 20.71875 C 20.910156 21.222656 20.1875 21.941406 19.683594 22.808594 C 19.105469 23.746094 18.890625 24.828125 18.890625 25.835938 C 18.890625 25.910156 18.890625 25.910156 18.890625 25.910156 C 18.890625 26.917969 19.105469 28 19.683594 28.9375 C 20.1875 29.800781 20.910156 30.523438 21.773438 31.027344 C 22.710938 31.53125 23.867188 31.820312 24.945312 31.75 C 26.316406 31.675781 27.613281 31.027344 28.769531 30.234375 C 29.847656 29.441406 30.929688 28.578125 32.085938 27.710938 C 33.09375 26.988281 34.246094 26.269531 35.546875 25.980469 C 35.546875 25.980469 35.617188 25.910156 35.617188 25.835938 "/>
<path style=" stroke:none;fill-rule:evenodd;fill:rgb(21.588135%,15.769958%,42.436218%);fill-opacity:1;" d="M 151.988281 41.769531 L 164.679688 41.769531 C 162.15625 40.257812 161.363281 38.816406 159.777344 35.136719 C 151.054688 14.878906 147.949219 7.808594 147.949219 7.808594 C 147.949219 7.808594 146.007812 11.054688 139.730469 12.28125 C 140.164062 12.570312 140.671875 13.363281 140.671875 14.226562 C 140.671875 14.804688 140.523438 15.527344 140.164062 16.464844 L 131.871094 35.136719 C 130.070312 39.03125 129.0625 40.761719 126.609375 41.554688 C 124.664062 40.472656 124.304688 39.390625 124.304688 35.496094 L 124.304688 16.246094 C 124.304688 12.210938 124.664062 11.199219 126.753906 10.046875 L 115.433594 10.046875 C 117.453125 11.199219 117.886719 12.210938 117.886719 16.246094 L 117.886719 22.808594 L 102.097656 22.808594 L 102.097656 16.246094 C 102.097656 12.210938 102.527344 11.199219 104.617188 10.046875 L 93.226562 10.046875 C 95.390625 11.199219 95.75 12.210938 95.75 16.246094 L 95.75 35.496094 C 95.75 39.535156 95.390625 40.542969 93.226562 41.769531 L 104.617188 41.769531 C 102.527344 40.542969 102.097656 39.535156 102.097656 35.496094 L 102.097656 27.277344 L 117.886719 27.277344 L 117.886719 35.496094 C 117.886719 39.535156 117.453125 40.542969 115.359375 41.769531 L 137.785156 41.769531 C 136.703125 41.121094 135.839844 40.183594 135.839844 38.957031 C 135.839844 38.09375 136.128906 37.515625 136.851562 35.929688 L 138.648438 31.605469 L 151.195312 31.605469 L 153.070312 36.433594 C 153.648438 37.660156 153.863281 38.238281 153.863281 39.03125 C 153.863281 40.183594 152.855469 41.121094 151.988281 41.769531 Z M 140.238281 27.785156 L 145.066406 16.390625 L 149.609375 27.785156 L 140.238281 27.785156 "/>
<path style=" stroke:none;fill-rule:evenodd;fill:rgb(21.588135%,15.769958%,42.436218%);fill-opacity:1;" d="M 173.621094 35.496094 L 173.621094 16.246094 C 173.621094 12.210938 173.980469 11.199219 176 10.046875 L 164.753906 10.046875 C 166.769531 11.199219 167.203125 12.210938 167.203125 16.246094 L 167.203125 35.496094 C 167.203125 39.535156 166.769531 40.542969 164.753906 41.769531 L 176 41.769531 C 173.980469 40.542969 173.621094 39.535156 173.621094 35.496094 "/>
<path style=" stroke:none;fill-rule:evenodd;fill:rgb(21.588135%,15.769958%,42.436218%);fill-opacity:1;" d="M 92.21875 7.808594 C 91.0625 8.820312 89.191406 10.046875 84.214844 10.046875 L 70.011719 10.046875 C 67.199219 10.046875 66.042969 8.386719 65.539062 7.378906 C 64.457031 9.828125 61.71875 13.289062 60.058594 14.660156 L 73.328125 14.660156 C 73.328125 15.164062 73.328125 15.671875 73.328125 16.246094 L 73.328125 35.066406 C 73.328125 39.175781 72.75 40.472656 70.804688 41.769531 L 82.125 41.769531 C 80.105469 40.542969 79.742188 39.535156 79.742188 35.496094 L 79.742188 16.246094 C 79.742188 15.671875 79.742188 15.308594 79.742188 14.660156 L 81.617188 14.660156 C 84.429688 14.660156 85.945312 14.371094 87.097656 13.9375 C 90.128906 12.859375 92.003906 10.621094 92.21875 7.808594 "/>
</g>
</svg>

<svg xmlns="http://www.w3.org/2000/svg" width="176pt" height="68.987" viewBox="0 0 176 51.74"><defs><clipPath id="a"><path d="M0 0h56v51.738H0Zm0 0"/></clipPath></defs><g clip-path="url(#a)"><path d="M54.004 32.324c-.504-1.078-1.082-2.09-1.8-2.953a14 14 0 0 0-2.384-2.238 5.8 5.8 0 0 0-1.441-.863c-.215-.145-.504-.29-.719-.434.215-.07.504-.215.719-.36a5.8 5.8 0 0 0 1.441-.867 13.8 13.8 0 0 0 2.383-2.234c.719-.867 1.297-1.875 1.8-2.957a14 14 0 0 0 1.083-3.461c.07-.863.144-1.73.144-2.523V12.28a11.5 11.5 0 0 0-.648-3.027c-.363-.938-.793-1.95-1.371-2.813a13.5 13.5 0 0 0-2.02-2.523c-.793-.723-1.656-1.441-2.593-2.02A12.2 12.2 0 0 0 45.422.602C44.27.238 43.117.023 41.82.023c-1.226-.07-2.383.075-3.535.29-1.082.289-2.164.718-3.101 1.226a10.1 10.1 0 0 0-2.664 1.945 10.9 10.9 0 0 0-1.875 2.524c-.508.937-.868 1.945-1.012 3.027-.145.578-.145 1.082-.145 1.66 0 .504 0 .938.075 1.367-1.012-.574-2.02-1.078-3.032-1.367-1.222-.433-2.664-.648-4.11-.722-1.366 0-2.667.144-3.89.433-1.156.215-2.308.649-3.39 1.227a17 17 0 0 0-2.883 1.945 34 34 0 0 0-1.73 1.586s-.868.867-1.298 1.441c-.507.508-1.011 1.157-1.515 1.805l-1.152 1.442c-.29.433-.579.793-.938 1.152-.434.578-.937 1.082-1.445 1.586-.864.867-1.801 1.66-2.809 2.308-.219.145-.433.29-.652.434-.14.07-.285.145-.43.215-.144.074-.289.144-.289.289 0 .215.145.289.29.36.144.074.288.144.429.218.219.145.433.29.652.43 1.008.652 1.945 1.445 2.809 2.308.508.504 1.011 1.012 1.445 1.586.36.36.648.723.938 1.157l1.152 1.44c.504.65 1.008 1.298 1.515 1.802.43.578 1.297 1.37 1.297 1.37.575.65 1.153 1.153 1.73 1.657a17 17 0 0 0 2.884 1.95c1.082.577 2.234 1.007 3.39 1.222 1.223.363 2.524.434 3.89.434 1.446-.07 2.888-.286 4.11-.72 1.012-.288 2.02-.792 3.032-1.37-.075.433-.075.863-.075 1.37 0 .575 0 1.083.145 1.657a8.8 8.8 0 0 0 1.012 3.027 11 11 0 0 0 1.875 2.528c.789.793 1.656 1.441 2.664 1.945.937.504 2.02.938 3.101 1.227 1.153.214 2.309.359 3.535.289 1.297 0 2.45-.22 3.602-.578 1.156-.29 2.164-.723 3.176-1.297.937-.578 1.8-1.301 2.593-2.02a13.5 13.5 0 0 0 2.02-2.523c.578-.867 1.008-1.875 1.371-2.813.36-1.008.574-2.02.648-3.101v-1.082c0-.793-.074-1.657-.144-2.524a14 14 0 0 0-1.082-3.46" style="stroke:none;fill-rule:evenodd;fill:#fbc708;fill-opacity:1"/></g><path d="M50.977 33.48c-.434-.937-.938-1.804-1.66-2.597a8.5 8.5 0 0 0-2.305-1.945c-.938-.579-1.875-1.012-2.887-1.227-1.008-.36-2.09-.504-3.172-.504-1.152 0-2.234.145-3.387.43-.937.218-1.804.508-2.668.941-.793.36-1.515.863-2.164 1.367-.648.434-1.297.938-1.875 1.442-.648.433-1.226.867-1.875 1.3-.578.36-1.226.72-1.945 1.008-.793.215-1.586.36-2.383.36a8.1 8.1 0 0 1-3.172-.649c-1.007-.433-1.875-1.008-2.593-1.8-.793-.723-1.371-1.66-1.73-2.669-.434-.937-.579-2.019-.579-3.101 0-1.008.145-2.09.578-3.027.36-1.008.938-1.875 1.73-2.668.72-.793 1.587-1.371 2.594-1.805a8.1 8.1 0 0 1 3.172-.648c.797 0 1.59.144 2.383.363.719.285 1.367.648 1.945 1.008.649.433 1.227.863 1.875 1.37.578.43 1.227.938 1.875 1.442.649.434 1.371.938 2.164 1.297.864.434 1.73.723 2.668.937 1.153.29 2.235.434 3.387.434 1.082 0 2.164-.144 3.172-.434 1.012-.289 1.95-.718 2.887-1.296a8.5 8.5 0 0 0 2.304-1.95c.723-.793 1.227-1.656 1.66-2.593.43-1.008.72-2.02.864-3.102.144-1.152.144-2.305-.07-3.46-.22-1.083-.579-2.161-1.083-3.099-.503-.937-1.152-1.73-1.874-2.453a10.4 10.4 0 0 0-2.524-1.875 14 14 0 0 0-2.957-1.007 9.7 9.7 0 0 0-3.242-.145c-1.012.145-2.094.434-3.031.938a8.3 8.3 0 0 0-2.38 1.8c-.718.723-1.226 1.586-1.656 2.524-.363.937-.648 1.949-.722 2.957 0 1.008.074 2.09.433 3.101 0 .145.07.285.145.434 0 .07 0 .14.07.215 0 .07 0 .144.074.215 0 0 .07.074.145.074 0 0 .07-.074.07-.145v-.433c.07-.578.215-1.082.434-1.586a5.9 5.9 0 0 1 1.875-2.309c.863-.504 1.871-.793 2.883-.863 1.082-.074 2.164.07 3.101.574.864.434 1.586 1.156 2.09 2.02.504.867.723 1.949.723 2.957s-.29 2.09-.867 2.957c-.504.863-1.297 1.586-2.235 2.09-.937.433-2.02.648-3.027.503-.723-.07-1.442-.289-2.094-.574-.648-.289-1.297-.722-1.875-1.156-.648-.504-1.297-1.008-1.871-1.512-.652-.578-1.3-1.156-1.95-1.66-.718-.574-1.44-1.082-2.234-1.441a12.3 12.3 0 0 0-2.668-1.153 11.6 11.6 0 0 0-3.171-.433c-1.082 0-2.165.07-3.247.36-.937.218-1.8.503-2.668.937a20 20 0 0 0-2.16 1.515c-.648.504-1.226 1.153-1.804 1.801s-1.082 1.3-1.586 1.95c-.578.648-1.082 1.366-1.586 2.019-.578.648-1.082 1.222-1.73 1.87a13.4 13.4 0 0 1-1.876 1.587c-.144.074-.289.144-.433.219-.07.07-.215.144-.285.214-.075 0-.22.075-.22.145 0 .144.145.215.22.289.07 0 .214.07.285.145.144.07.289.144.433.289.723.43 1.297.937 1.875 1.511.649.578 1.153 1.227 1.73 1.875.505.649 1.009 1.371 1.587 2.02.504.648 1.008 1.297 1.586 1.945.578.653 1.156 1.297 1.804 1.805a20 20 0 0 0 2.16 1.512c.868.433 1.731.722 2.668.937 1.082.29 2.165.363 3.247.363s2.164-.144 3.171-.433c.938-.29 1.805-.649 2.668-1.082a15 15 0 0 0 2.235-1.516c.648-.504 1.297-1.082 1.949-1.586.574-.574 1.223-1.082 1.871-1.586.578-.43 1.227-.863 1.875-1.152a7 7 0 0 1 2.094-.578c1.008-.145 2.09.074 3.027.504.938.433 1.73 1.226 2.235 2.093.578.864.867 1.946.867 2.957 0 1.079-.219 2.09-.723 2.954-.504.867-1.226 1.59-2.09 2.02-.937.503-2.02.648-3.101.577-1.012 0-2.02-.363-2.883-.867a5.9 5.9 0 0 1-1.875-2.305 5.6 5.6 0 0 1-.434-1.586v-.433c0-.074-.07-.145-.07-.145-.074 0-.145.07-.145.07-.074.075-.074.145-.074.22-.07.07-.07.144-.07.214-.074.145-.145.29-.145.434-.359 1.008-.433 2.09-.433 3.101.074 1.008.36 2.016.722 2.953.43.938.938 1.805 1.657 2.524a8.3 8.3 0 0 0 2.379 1.805c.937.504 2.02.793 3.03.937 1.079.145 2.235.07 3.243-.144 1.012-.215 2.02-.579 2.957-1.012.938-.504 1.73-1.153 2.523-1.871.723-.723 1.372-1.516 1.876-2.453.503-.938.863-2.02 1.082-3.102.214-1.152.214-2.305.07-3.46a11.8 11.8 0 0 0-.863-3.099" style="stroke:none;fill-rule:evenodd;fill:#37286c;fill-opacity:1"/><path d="m35.617 25.836-.07-.07c-1.3-.29-2.453-1.012-3.461-1.73-1.156-.868-2.238-1.731-3.316-2.528-1.157-.79-2.454-1.442-3.825-1.512-1.078-.074-2.234.145-3.172.723a5.8 5.8 0 0 0-2.09 2.09c-.578.937-.792 2.02-.792 3.027v.074c0 1.008.214 2.09.793 3.028a5.8 5.8 0 0 0 2.09 2.09c.937.503 2.093.792 3.171.722 1.371-.074 2.668-.723 3.825-1.516 1.078-.793 2.16-1.656 3.316-2.523 1.008-.723 2.16-1.441 3.46-1.73 0 0 .071-.07.071-.145" style="stroke:none;fill-rule:evenodd;fill:#c40b8c;fill-opacity:1"/><path d="M151.988 41.77h12.692c-2.524-1.512-3.317-2.954-4.903-6.633-8.722-20.258-11.828-27.328-11.828-27.328s-1.941 3.246-8.219 4.472c.434.29.942 1.082.942 1.946 0 .578-.149 1.3-.508 2.238l-8.293 18.672c-1.8 3.894-2.809 5.625-5.262 6.418-1.945-1.082-2.304-2.164-2.304-6.059v-19.25c0-4.035.36-5.047 2.449-6.2h-11.32c2.02 1.153 2.453 2.165 2.453 6.2v6.563h-15.79v-6.563c0-4.035.43-5.047 2.52-6.2h-11.39c2.164 1.153 2.523 2.165 2.523 6.2v19.25c0 4.04-.36 5.047-2.523 6.274h11.39c-2.09-1.227-2.52-2.235-2.52-6.274v-8.219h15.79v8.22c0 4.038-.434 5.046-2.528 6.273h22.426c-1.082-.649-1.945-1.586-1.945-2.813 0-.863.289-1.441 1.012-3.027l1.796-4.325h12.547l1.875 4.829c.578 1.226.793 1.804.793 2.597 0 1.153-1.008 2.09-1.875 2.739m-11.75-13.985 4.828-11.394 4.543 11.394zM173.621 35.496v-19.25c0-4.035.36-5.047 2.379-6.2h-11.246c2.016 1.153 2.45 2.165 2.45 6.2v19.25c0 4.04-.434 5.047-2.45 6.274H176c-2.02-1.227-2.379-2.235-2.379-6.274M92.219 7.809c-1.156 1.011-3.028 2.238-8.004 2.238H70.012c-2.813 0-3.969-1.66-4.473-2.668-1.082 2.45-3.82 5.91-5.48 7.281h13.27v20.406c0 4.11-.579 5.407-2.524 6.704h11.32c-2.02-1.227-2.383-2.235-2.383-6.274V14.66h1.875c2.813 0 4.328-.289 5.48-.723 3.032-1.078 4.907-3.316 5.122-6.128" style="stroke:none;fill-rule:evenodd;fill:#37286c;fill-opacity:1"/></svg>
